X:30
T:Polska ur Petter Dufvas notbok (Ma6-30)
R:Polska
O:Verkelbäck, Småland
B:Petter Dufvas notbok
S:Petter Dufva
N:Smus Ma6 bild 32
M:3/4
L:1/8
K:G
GB/d/ gd/c/ BA/G/|DF/A/ cA/c/ BA/G/|GB/d/ gd/c/ BA/G/|A/d/A/F/ G2 G,2:|
|:GB BA/B/ cB/A/|Ge fe/f/ g2|GB BA/B/ cB/A/|Ge fe/f/ g2|
De ed/f/ fe/g/|f/a/e/^c/ d2D2|dBGBd=f|ec GE C2|
e^c Ac eg|fd AF D2|ge/f/ gB AG|AB/c/ A/B/c/A/ B2|B/A/B/c/ Aedc|A/d/A/F/ G2 G,2:|

